iconpack/gfx/dark/channel_edit.svg

<?xml version="1.0" encoding="UTF-8" standalone="no"?>
<svg
   xmlns:dc="http://purl.org/dc/elements/1.1/"
   xmlns:cc="http://creativecommons.org/ns#"
   xmlns:rdf="http://www.w3.org/1999/02/22-rdf-syntax-ns#"
   xmlns:svg="http://www.w3.org/2000/svg"
   xmlns="http://www.w3.org/2000/svg"
   xmlns:sodipodi="http://sodipodi.sourceforge.net/DTD/sodipodi-0.dtd"
   xmlns:inkscape="http://www.inkscape.org/namespaces/inkscape"
   width="100%"
   height="100%"
   viewBox="0 0 128 128"
   version="1.1"
   xml:space="preserve"
   style="fill-rule:evenodd;clip-rule:evenodd;stroke-linejoin:round;stroke-miterlimit:1.41421;"
   id="svg8075"
   inkscape:version="0.91 r13725"
   sodipodi:docname="channel_edit.svg"><metadata
     id="metadata8115"><rdf:RDF><cc:Work
         rdf:about=""><dc:format>image/svg+xml</dc:format><dc:type
           rdf:resource="http://purl.org/dc/dcmitype/StillImage" /></cc:Work></rdf:RDF></metadata><sodipodi:namedview
     pagecolor="#ffffff"
     bordercolor="#666666"
     borderopacity="1"
     objecttolerance="10"
     gridtolerance="10"
     guidetolerance="10"
     inkscape:pageopacity="0"
     inkscape:pageshadow="2"
     inkscape:window-width="1920"
     inkscape:window-height="1017"
     id="namedview8113"
     showgrid="false"
     inkscape:zoom="1.84375"
     inkscape:cx="64"
     inkscape:cy="64"
     inkscape:window-x="-8"
     inkscape:window-y="-8"
     inkscape:window-maximized="1"
     inkscape:current-layer="svg8075" /><rect
     id="channel_edit"
     x="0"
     y="0"
     width="128"
     height="128"
     style="fill:none;" /><path
     d="M95.651,12.505l-63.304,0c-12.893,0 -23.347,10.454 -23.347,23.348l0,30.299c0,12.897 10.454,23.348 23.347,23.348l34.539,0c2.035,5.361 4.119,16.285 -6.902,25.995c20.145,-3.741 29.606,-19.512 32.702,-25.995l2.966,0c12.893,0 23.348,-10.451 23.348,-23.348l0,-30.299c0,-12.894 -10.455,-23.348 -23.349,-23.348Z"
     style="fill:url(#_Linear1);fill-rule:nonzero;"
     id="path8078" /><g
     id="g8080"><path
       d="M35.167,47.077c-0.97,-0.97 -0.97,-2.543 0,-3.512l2.341,-2.342c0.97,-0.97 2.543,-0.97 3.512,0l7.025,7.024c0.97,0.97 0.97,2.542 0,3.512l-2.341,2.342c-0.97,0.97 -2.543,0.97 -3.513,0l-7.024,-7.024Z"
       style="fill:#fff;fill-rule:nonzero;"
       id="path8082" /><path
       d="M55.362,26.88c-0.97,-0.97 -0.97,-2.543 0,-3.514l2.342,-2.341c0.969,-0.969 2.542,-0.969 3.512,0l7.024,7.025c0.97,0.97 0.971,2.542 0.001,3.512l-2.342,2.342c-0.97,0.97 -2.542,0.97 -3.512,0l-7.025,-7.024Z"
       style="fill:#fff;fill-rule:nonzero;"
       id="path8084" /><path
       d="M34.272,37.648c0,-1.371 1.112,-2.483 2.483,-2.483l3.312,0c1.372,0 2.483,1.112 2.483,2.483l0,7.451c0,1.372 -1.111,2.484 -2.483,2.484l-3.312,0c-1.371,0 -2.483,-1.113 -2.483,-2.484l0,-7.451Z"
       style="fill:#fff;fill-rule:nonzero;"
       id="path8086" /><path
       d="M51.788,28.411c-1.371,0 -2.482,-1.112 -2.483,-2.483l0,-3.313c0,-1.371 1.112,-2.484 2.482,-2.483l7.451,0c1.372,0 2.484,1.113 2.484,2.483l0,3.313c0,1.372 -1.112,2.483 -2.484,2.483l-7.45,0Z"
       style="fill:#fff;fill-rule:nonzero;"
       id="path8088" /><path
       d="M43.997,54.877c-1.372,0 -2.484,-1.111 -2.484,-2.483l0,-3.312c0,-1.371 1.112,-2.483 2.484,-2.483l15.729,0c1.372,0 2.484,1.112 2.483,2.483l0,3.312c0,1.372 -1.111,2.483 -2.483,2.484l-15.729,-0.001Z"
       style="fill:#fff;fill-rule:nonzero;"
       id="path8090" /><path
       d="M60.739,29.856c0,-1.372 1.112,-2.484 2.483,-2.484l3.312,0c1.372,0 2.483,1.112 2.483,2.483l0.001,15.73c-0.002,1.372 -1.112,2.483 -2.484,2.483l-3.312,0c-1.372,0 -2.484,-1.112 -2.484,-2.483l0.001,-15.729Z"
       style="fill:#fff;fill-rule:nonzero;"
       id="path8092" /><path
       d="M92.52,68.658c1.612,1.61 1.611,4.222 0,5.834l-3.889,3.889c-1.609,1.61 -4.222,1.61 -5.833,-0.001l-25.938,-25.938c-1.611,-1.611 -1.611,-4.223 0,-5.834l3.889,-3.888c1.61,-1.61 4.223,-1.61 5.833,0l25.938,25.938Z"
       style="fill:#fff;fill-rule:nonzero;"
       id="path8094" /></g><path
     d="M95.651,12.505l-63.304,0c-12.893,0 -23.347,10.454 -23.347,23.348l0,30.299c0,12.897 10.454,23.348 23.347,23.348l34.539,0c2.035,5.361 4.119,16.285 -6.902,25.995c20.145,-3.741 29.606,-19.512 32.702,-25.995l2.966,0c12.893,0 23.348,-10.451 23.348,-23.348l0,-30.299c0,-12.894 -10.455,-23.348 -23.349,-23.348Z"
     style="fill:#7289da;fill-rule:nonzero;fill-opacity:1"
     id="path8096" /><g
     id="g8098"
     style="fill:#f2f2f2"><path
       d="M67.923,44.871c3.439,-6.665 2.905,-14.338 -2.624,-19.827c-3.853,-3.82 -18.525,-3.264 -18.525,-3.264l-1.182,3.564l10.515,3.67c0,0 8.798,5.571 0.125,14.182c-8.676,8.607 -13.701,-0.71 -13.701,-0.71l-3.769,-10.367l-3.54,1.123c0,0 -1.375,14.867 2.731,18.942c5.526,5.486 13.265,6.016 19.978,2.596l9.992,-9.909Z"
       style="fill:#f2f2f2;fill-rule:nonzero"
       id="path8100" /><path
       d="M91.738,68.483c1.683,1.679 1.682,4.403 0,6.085l-4.056,4.056c-1.679,1.682 -4.404,1.682 -6.085,0l-27.055,-27.056c-1.68,-1.681 -1.68,-4.405 0,-6.086l4.056,-4.055c1.68,-1.68 4.405,-1.681 6.085,0l27.055,27.056Z"
       style="fill:#f2f2f2;fill-rule:nonzero"
       id="path8102" /></g><defs
     id="defs8104"><linearGradient
       id="_Linear1"
       x1="0"
       y1="0"
       x2="1"
       y2="0"
       gradientUnits="userSpaceOnUse"
       gradientTransform="matrix(6.29416e-15,-102.791,102.791,6.29416e-15,64.0005,115.495)"><stop
         offset="0"
         style="stop-color:#426080;stop-opacity:1"
         id="stop8107" /><stop
         offset="0.3"
         style="stop-color:#426080;stop-opacity:1"
         id="stop8109" /><stop
         offset="1"
         style="stop-color:#819cbd;stop-opacity:1"
         id="stop8111" /></linearGradient></defs></svg>

<?xml version="1.0" encoding="UTF-8" standalone="no"?>
<svg
   xmlns:dc="http://purl.org/dc/elements/1.1/"
   xmlns:cc="http://creativecommons.org/ns#"
   xmlns:rdf="http://www.w3.org/1999/02/22-rdf-syntax-ns#"
   xmlns:svg="http://www.w3.org/2000/svg"
   xmlns="http://www.w3.org/2000/svg"
   xmlns:sodipodi="http://sodipodi.sourceforge.net/DTD/sodipodi-0.dtd"
   xmlns:inkscape="http://www.inkscape.org/namespaces/inkscape"
   width="100%"
   height="100%"
   viewBox="0 0 128 128"
   version="1.1"
   xml:space="preserve"
   style="fill-rule:evenodd;clip-rule:evenodd;stroke-linejoin:round;stroke-miterlimit:1.41421;"
   id="svg8075"
   inkscape:version="0.92.2 (5c3e80d, 2017-08-06)"
   sodipodi:docname="channel_edit.svg"><metadata
     id="metadata8115"><rdf:RDF><cc:Work
         rdf:about=""><dc:format>image/svg+xml</dc:format><dc:type
           rdf:resource="http://purl.org/dc/dcmitype/StillImage" /></cc:Work></rdf:RDF></metadata><sodipodi:namedview
     pagecolor="#ffffff"
     bordercolor="#666666"
     borderopacity="1"
     objecttolerance="10"
     gridtolerance="10"
     guidetolerance="10"
     inkscape:pageopacity="0"
     inkscape:pageshadow="2"
     inkscape:window-width="1920"
     inkscape:window-height="1017"
     id="namedview8113"
     showgrid="false"
     inkscape:zoom="5.2149125"
     inkscape:cx="84.687246"
     inkscape:cy="57.09946"
     inkscape:window-x="-8"
     inkscape:window-y="-8"
     inkscape:window-maximized="1"
     inkscape:current-layer="svg8075" /><rect
     id="channel_edit"
     x="0"
     y="0"
     width="128"
     height="128"
     style="display:none;fill:none" /><path
     d="M 95.651,12.505 H 32.347 C 19.454,12.505 9,22.959 9,35.853 V 66.152 C 9,79.049 19.454,89.5 32.347,89.5 h 34.539 c 2.035,5.361 4.119,16.285 -6.902,25.995 C 80.129,111.754 89.59,95.983 92.686,89.5 h 2.966 C 108.545,89.5 119,79.049 119,66.152 V 35.853 C 119,22.959 108.545,12.505 95.651,12.505 Z"
     style="display:inline;fill:#7289da;fill-opacity:1;fill-rule:nonzero"
     id="path8096"
     inkscape:connector-curvature="0" /><g
     id="g8098"
     style="display:inline;fill:#f2f2f2"><path
       d="M 67.923,44.871 C 71.362,38.206 70.828,30.533 65.299,25.044 61.446,21.224 46.774,21.78 46.774,21.78 l -1.182,3.564 10.515,3.67 c 0,0 8.798,5.571 0.125,14.182 -8.676,8.607 -13.701,-0.71 -13.701,-0.71 l -3.769,-10.367 -3.54,1.123 c 0,0 -1.375,14.867 2.731,18.942 5.526,5.486 13.265,6.016 19.978,2.596 z"
       style="fill:#f2f2f2;fill-rule:nonzero"
       id="path8100"
       inkscape:connector-curvature="0" /><path
       d="m 91.738,68.483 c 1.683,1.679 1.682,4.403 0,6.085 l -4.056,4.056 c -1.679,1.682 -4.404,1.682 -6.085,0 L 54.542,51.568 c -1.68,-1.681 -1.68,-4.405 0,-6.086 l 4.056,-4.055 c 1.68,-1.68 4.405,-1.681 6.085,0 z"
       style="fill:#f2f2f2;fill-rule:nonzero"
       id="path8102"
       inkscape:connector-curvature="0" /></g><defs
     id="defs8104"><linearGradient
       id="_Linear1"
       x1="0"
       y1="0"
       x2="1"
       y2="0"
       gradientUnits="userSpaceOnUse"
       gradientTransform="matrix(6.29416e-15,-102.791,102.791,6.29416e-15,64.0005,115.495)"><stop
         offset="0"
         style="stop-color:#426080;stop-opacity:1"
         id="stop8107" /><stop
         offset="0.3"
         style="stop-color:#426080;stop-opacity:1"
         id="stop8109" /><stop
         offset="1"
         style="stop-color:#819cbd;stop-opacity:1"
         id="stop8111" /></linearGradient></defs></svg>
